img/partners/raf-bank.svg

<svg width="401" height="100" viewBox="0 0 401 100" fill="none" xmlns="http://www.w3.org/2000/svg">
<path d="M136.492 74.88C136.492 84.6 131.092 90 121.372 90H71.6122C61.8922 90 56.4922 84.6 56.4922 74.88V25.12C56.4922 15.4 61.8922 10 71.6122 10H121.392C131.092 10 136.492 15.4 136.492 25.12V74.88Z" fill="#9AACDE"/>
<path fill-rule="evenodd" clip-rule="evenodd" d="M107.932 46.0993V38.4595L110.691 35.6984V42.3184L113.092 44.7177L122.751 35.059L125.132 37.4377C125.111 35.6388 124.751 30.4188 120.331 26.0787C115.572 21.4796 110.411 23.5582 108.651 25.318L99.0111 34.9582L101.472 37.4192L96.4926 42.4377L91.5111 37.4582L93.972 34.9994L84.3318 25.3592C82.572 23.5993 77.4116 21.5187 72.6521 26.1178C68.2319 30.4578 67.8721 35.6778 67.8516 37.4788L70.2323 35.0981L79.891 44.7588L82.2923 42.3596V35.7395L85.0514 38.4985V46.1383L88.9309 49.9994L69.8109 69.1194L77.3725 76.6585L96.4926 57.559L115.611 76.6791L123.172 69.1379L104.052 49.9994L107.932 46.0993ZM149.833 53.3402H164.254V57.8797H155.234V62.5405H158.234C160.253 62.5405 162.854 62.781 164.813 64.7013C165.654 65.5401 166.694 67.08 166.694 69.5594C166.694 70.3078 166.602 71.0253 166.423 71.6955C166.123 72.8139 165.578 73.7967 164.813 74.5594C164.293 75.0796 163.703 75.4784 163.055 75.7806C162.761 75.9163 162.455 76.0335 162.136 76.1342C161.98 76.1836 161.822 76.2288 161.659 76.2699C160.483 76.568 159.171 76.6606 157.773 76.6606H149.833V53.3402ZM157.354 72.3205C158.094 72.3205 159.414 72.2609 160.253 71.5804C160.415 71.4406 160.693 71.1651 160.896 70.7272C161.044 70.4126 161.153 70.0138 161.153 69.5203C161.153 69.3435 161.139 69.177 161.114 69.0208C161.088 68.8542 161.046 68.7 160.997 68.5561C160.919 68.33 160.816 68.1326 160.701 67.962C160.592 67.8016 160.471 67.6659 160.349 67.5528C160.296 67.5035 160.243 67.4583 160.189 67.4171L160.113 67.3596C159.274 66.7592 157.913 66.7407 157.354 66.7407H155.214V72.3411H157.354V72.3205ZM186.252 61.0602H181.213V62.8201C180.241 61.4981 178.947 60.9225 177.804 60.6881C177.255 60.575 176.741 60.5401 176.312 60.5401C174.153 60.5401 172.253 61.3193 170.892 62.6803C169.453 64.1194 168.472 66.3604 168.472 68.9796C168.472 71.0397 169.112 73.0791 170.752 74.8205C172.473 76.64 174.352 77.1992 176.593 77.1992C177.253 77.1992 178.086 77.117 178.923 76.7592C179.731 76.4138 180.545 75.8115 181.213 74.7794V76.6606H186.252V61.0602ZM173.653 68.8398C173.653 68.0689 173.847 67.4439 174.108 66.9504C174.322 66.5495 174.579 66.235 174.813 66.0006C175.473 65.3407 176.472 64.8801 177.553 64.9007C178.472 64.9007 179.593 65.2399 180.352 65.98C180.491 66.1116 180.621 66.2555 180.738 66.4097C180.872 66.5886 180.989 66.7819 181.09 66.9854C181.365 67.5384 181.513 68.1758 181.513 68.8398C181.513 70.1803 180.952 71.161 180.292 71.7798C179.963 72.1087 179.564 72.3781 179.12 72.5652C178.674 72.7543 178.183 72.8592 177.673 72.8592C176.472 72.8592 175.393 72.3801 174.692 71.64C174.252 71.1404 173.653 70.2399 173.653 68.8398ZM189.293 61.0602H194.332V66.4796H199.973V61.0602H205.012V76.6606H199.973V70.5401H194.332V76.6606H189.293V61.0602ZM213.072 61.0602H208.032V76.6606H213.072V69.7403L218.392 76.6606H224.893L217.753 68.3012L224.433 61.0602H218.172L213.072 67.2609V61.0602ZM158.051 23.3402C160.072 23.3402 162.313 23.6198 164.171 25.2605C166.172 26.9998 166.451 29.3209 166.451 30.9204C166.451 33.8604 165.331 35.501 164.451 36.42C162.592 38.3012 160.152 38.48 158.511 38.48H155.232V46.6606H149.852V23.3402H158.051ZM155.212 34.0804H157.132C157.418 34.0804 157.782 34.0742 158.172 34.0187C158.799 33.9303 159.492 33.7165 160.033 33.2004C160.512 32.7194 160.913 31.9011 160.913 30.8999C160.913 30.4517 160.841 30.0384 160.711 29.6766C160.559 29.249 160.325 28.8892 160.033 28.6198C159.231 27.8612 158.072 27.7399 157.031 27.7399H155.212V34.0804ZM184.632 31.0602H179.593V32.8201C178.902 31.8805 178.049 31.3172 177.204 30.9862C176.287 30.6264 175.378 30.5401 174.692 30.5401C172.533 30.5401 170.633 31.3193 169.272 32.6803C167.833 34.1194 166.852 36.3604 166.852 38.9796C166.852 40.3119 167.12 41.6359 167.753 42.8756C168.098 43.5541 168.553 44.2058 169.132 44.8205C170.853 46.64 172.732 47.1992 174.973 47.1992C175.631 47.1992 176.458 47.119 177.29 46.7654C178.102 46.42 178.921 45.8176 179.593 44.7794V46.6606H184.632V31.0602ZM172.033 38.8398C172.033 37.4397 172.673 36.5207 173.193 36.0006C173.853 35.3407 174.873 34.8801 175.933 34.9007C176.205 34.9007 176.493 34.9315 176.785 34.9911C176.955 35.0261 177.126 35.0713 177.296 35.1289C177.821 35.3057 178.326 35.5853 178.731 35.98C179.118 36.346 179.418 36.8045 179.616 37.3205C179.7 37.5405 179.766 37.7707 179.813 38.0072C179.833 38.11 179.85 38.2148 179.862 38.3217C179.873 38.406 179.879 38.4924 179.883 38.5787C179.889 38.6651 179.893 38.7514 179.893 38.8398C179.893 40.1803 179.332 41.161 178.672 41.7798C178.326 42.1252 177.905 42.4048 177.434 42.5939C177.251 42.668 177.06 42.7276 176.863 42.7707L176.645 42.8139L176.441 42.8386C176.314 42.853 176.184 42.8592 176.053 42.8592C175.528 42.8592 175.027 42.7666 174.568 42.6022C173.98 42.3904 173.466 42.0573 173.072 41.64C172.632 41.1404 172.033 40.2399 172.033 38.8398ZM192.712 31.0602V39.9809L199.352 31.0602H204.034V46.6606H198.993V37.6001L192.352 46.6606H187.673V31.0602H192.712ZM202.194 24.7609C201.772 26.0191 200.933 27.1005 199.953 27.7399C198.633 28.6198 197.013 28.7206 195.853 28.7206C194.694 28.7206 193.092 28.6198 191.754 27.7399C191.639 27.6659 191.525 27.5878 191.414 27.5014C191.289 27.4048 191.166 27.2999 191.046 27.1869C190.919 27.0656 190.796 26.9381 190.676 26.8024C190.177 26.2268 189.768 25.5236 189.513 24.7609L193.012 23.3999C193.152 24.0989 193.493 24.6601 193.912 24.9994C194.373 25.3797 194.953 25.6203 195.833 25.6203C196.048 25.6203 196.246 25.6059 196.429 25.5791L196.534 25.5627L196.636 25.5421L196.774 25.5072L196.912 25.4661C197.241 25.3571 197.512 25.1967 197.753 24.9994C198.172 24.6601 198.514 24.0989 198.653 23.3999L202.194 24.7609ZM215.173 46.9011V54.4402H220.253V46.9011H220.452C223.993 46.9011 225.952 45.4393 226.852 44.5594C227.315 44.105 227.775 43.5253 228.158 42.8036C228.224 42.6803 228.287 42.5528 228.347 42.4212L228.454 42.1786C228.588 41.8559 228.705 41.5105 228.801 41.1383C228.921 40.684 229.007 40.1926 229.054 39.6601C229.067 39.5101 229.077 39.3579 229.083 39.2017C229.089 39.0619 229.091 38.9221 229.091 38.7802C229.091 37.7687 228.939 36.8785 228.69 36.1013C228.47 35.4106 228.172 34.8102 227.833 34.2942C227.753 34.1708 227.669 34.0516 227.582 33.9365L227.508 33.8398L227.381 33.6815C227.062 33.293 226.725 32.9661 226.392 32.7008C224.852 31.4796 222.533 30.8197 220.473 30.8197H220.232V23.3402H215.193V30.8197H214.953C212.872 30.8197 210.572 31.4796 209.032 32.7008C207.732 33.7411 206.332 35.7004 206.332 38.7802C206.332 41.6194 207.453 43.48 208.573 44.5594C209.472 45.4393 211.433 46.9011 214.971 46.9011H215.173ZM214.151 34.987C214.562 34.8966 214.992 34.8596 215.413 34.8801V42.8406C214.132 42.8797 212.932 42.4007 212.272 41.6606C211.671 41.0397 211.252 40.0199 211.252 38.8008C211.252 37.561 211.671 36.5598 212.272 35.9595C212.734 35.4846 213.413 35.1494 214.151 34.987ZM223.113 41.6811C222.453 42.4007 221.273 42.9003 219.973 42.8612V34.9007C220.783 34.8452 221.614 35.0261 222.294 35.3859C222.603 35.5504 222.882 35.7498 223.113 35.98C223.386 36.2535 223.623 36.6133 223.799 37.0388C224.009 37.5508 224.132 38.1552 224.132 38.8193C224.132 40.0405 223.713 41.0602 223.113 41.6811ZM239.414 54.4402V46.9011H239.213C238.074 46.9011 237.099 46.749 236.268 46.5146C235.814 46.3871 235.405 46.2329 235.037 46.0664C233.984 45.5894 233.265 45.0014 232.815 44.5594C232.66 44.4114 232.506 44.249 232.356 44.0701C232.224 43.9159 232.095 43.7494 231.972 43.5726C231.682 43.1573 231.412 42.6782 231.19 42.1314C230.942 41.5207 230.752 40.8258 230.652 40.0405C230.621 39.8041 230.598 39.5573 230.586 39.3045C230.578 39.1338 230.574 38.9591 230.574 38.7802C230.574 35.7004 231.974 33.7411 233.273 32.7008C234.813 31.4796 237.113 30.8197 239.194 30.8197H239.435V23.3402H244.474V30.8197H244.714C245.354 30.8197 246.018 30.8834 246.676 31.0068C247.009 31.0684 247.34 31.1466 247.666 31.2411C247.954 31.3234 248.236 31.418 248.511 31.5228C249.297 31.825 250.025 32.2198 250.633 32.7008C251.935 33.7411 253.333 35.7004 253.333 38.7802C253.333 39.911 253.156 40.8814 252.872 41.7119C252.617 42.4562 252.276 43.0874 251.9 43.6157C251.641 43.9776 251.367 44.2901 251.094 44.5594C250.518 45.1227 249.507 45.9245 247.923 46.4282C247.502 46.5619 247.039 46.6749 246.536 46.7572C245.977 46.8497 245.364 46.9011 244.694 46.9011H244.494V54.4402H239.414ZM239.655 34.8801C238.474 34.8205 237.233 35.2194 236.513 35.9595C235.913 36.5598 235.493 37.561 235.493 38.8008C235.493 40.0199 235.913 41.0397 236.513 41.6606C237.173 42.4007 238.374 42.8797 239.655 42.8406V34.8801ZM244.213 42.8612C245.514 42.9003 246.694 42.4007 247.354 41.6811C247.673 41.3522 247.94 40.9101 248.121 40.3859C248.281 39.9212 248.374 39.3929 248.374 38.8193C248.374 37.6001 247.954 36.5804 247.354 35.98C246.614 35.2399 245.393 34.8205 244.213 34.9007V42.8612ZM272.572 31.0602H267.533V32.8201C266.092 30.8608 263.951 30.5401 262.632 30.5401C260.473 30.5401 258.573 31.3193 257.212 32.6803C255.773 34.1194 254.792 36.3604 254.792 38.9796C254.792 40.2913 255.051 41.5948 255.662 42.818C256.011 43.517 256.476 44.1873 257.072 44.8205C258.793 46.64 260.672 47.1992 262.913 47.1992C264.213 47.1992 266.172 46.8805 267.533 44.7794V46.6606H272.572V31.0602ZM259.973 38.8398C259.973 38.1902 260.111 37.6453 260.31 37.1951C260.541 36.6729 260.853 36.2802 261.133 36.0006C261.793 35.3407 262.812 34.8801 263.873 34.9007C264.792 34.9007 265.913 35.2399 266.671 35.98C267.412 36.6791 267.833 37.7194 267.833 38.8398C267.833 40.1803 267.272 41.161 266.612 41.7798C265.952 42.4397 265.012 42.8592 263.993 42.8592C262.792 42.8592 261.713 42.3801 261.011 41.64C260.8 41.3994 260.551 41.0643 260.349 40.6264C260.134 40.1556 259.973 39.5635 259.973 38.8398ZM280.652 31.0602V39.9809L287.292 31.0602H291.974V46.6606H286.933V37.6001L280.292 46.6606H275.613V31.0602H280.652ZM290.134 24.7609C289.938 25.3448 289.653 25.8896 289.305 26.3707C289.062 26.7078 288.789 27.0121 288.493 27.2773C288.302 27.45 288.1 27.6042 287.893 27.7399C287.558 27.9619 287.204 28.1346 286.842 28.2703C286.427 28.4245 286.003 28.5273 285.588 28.5952C284.942 28.7 284.319 28.7206 283.793 28.7206C282.634 28.7206 281.032 28.6198 279.694 27.7399C278.713 27.119 277.872 26.0191 277.453 24.7609L280.952 23.3999C281.092 24.0989 281.433 24.6601 281.852 24.9994C282.083 25.1885 282.342 25.3427 282.654 25.4496C282.967 25.5586 283.333 25.6203 283.773 25.6203C284.653 25.6203 285.232 25.3797 285.693 24.9994C285.907 24.8267 286.1 24.5964 286.258 24.3189C286.408 24.0516 286.525 23.7432 286.593 23.3999L290.134 24.7609ZM297.093 31.0993C296.252 31.42 295.173 31.9792 294.513 32.4007L296.472 35.7806C296.974 35.3592 297.494 35.0405 298.154 34.7609C298.814 34.4792 299.412 34.3394 300.214 34.3394C301.053 34.3394 301.552 34.5203 301.793 34.6211C302.155 34.7835 302.354 35.0076 302.457 35.2214C302.529 35.3756 302.553 35.5236 302.553 35.6408C302.553 35.941 302.414 36.3994 301.813 36.6791C301.651 36.7551 301.435 36.8106 301.203 36.8518C300.75 36.934 300.236 36.9607 299.932 36.9607H298.493V40.3797H300.372C300.933 40.3797 301.772 40.4805 302.194 40.6593C302.391 40.7457 302.555 40.8546 302.679 40.9924C302.841 41.1733 302.934 41.4036 302.934 41.6996C302.934 41.9278 302.889 42.2259 302.681 42.4994C302.576 42.6351 302.432 42.7666 302.233 42.8797C301.733 43.1593 300.972 43.2601 300.413 43.2601C299.883 43.2601 299.303 43.1758 298.781 43.0421C298.495 42.9681 298.228 42.8797 297.993 42.781C297.372 42.4994 296.632 41.9998 296.073 41.5207L293.933 44.8411C294.13 44.9994 294.455 45.2543 294.887 45.5339C295.088 45.6634 295.31 45.7991 295.553 45.9328C295.907 46.126 296.303 46.3152 296.733 46.4796C298.133 46.9998 299.593 47.1807 300.993 47.1807C303.594 47.1807 305.413 46.8004 306.733 45.501C307.251 44.9809 307.595 44.4258 307.806 43.8645C308.01 43.3217 308.092 42.7707 308.092 42.2403C308.092 42.1026 308.088 41.9669 308.076 41.8353C308.067 41.751 308.059 41.6667 308.047 41.5845L308.018 41.4118C307.891 40.7621 307.592 40.1865 307.054 39.6601C306.834 39.4402 306.112 38.8193 304.953 38.5397C305.072 38.4965 305.189 38.443 305.304 38.3834C305.401 38.3341 305.493 38.2786 305.586 38.2189L305.705 38.1388C305.787 38.0812 305.868 38.0195 305.946 37.9558C306.061 37.8633 306.17 37.7625 306.273 37.6597C307.033 36.86 307.212 35.98 307.212 34.9994C307.212 34.7013 307.19 34.4073 307.136 34.1215C307.107 33.9652 307.068 33.811 307.019 33.6589C306.846 33.1182 306.542 32.6083 306.053 32.1396C304.474 30.5997 301.614 30.5401 300.773 30.5401C299.572 30.5401 298.273 30.6799 297.093 31.0993ZM326.332 39.7403H314.692C314.692 40.0302 314.731 40.355 314.807 40.684C314.951 41.3049 315.228 41.9422 315.633 42.3986C315.833 42.6207 316.055 42.7954 316.287 42.9291C316.449 43.0236 316.618 43.0997 316.787 43.1593C317.286 43.3382 317.794 43.3793 318.211 43.3793C318.491 43.3793 318.773 43.3587 319.044 43.3176C319.49 43.2477 319.907 43.1182 320.232 42.9188C320.292 42.8797 320.892 42.4994 321.312 41.6194L326.073 42.1005C325.372 44.3004 323.972 45.4599 323.072 46.0191C321.573 46.9196 319.893 47.1786 318.133 47.1786C315.791 47.1786 313.731 46.7592 311.912 44.9397C310.553 43.5787 309.572 41.5187 309.572 38.92C309.572 36.6791 310.372 34.3805 311.953 32.7605C312.889 31.823 313.945 31.2638 314.984 30.9389C316.03 30.61 317.058 30.5195 317.932 30.5195C319.673 30.5195 322.192 30.8402 324.132 32.8592C325.993 34.8205 326.332 37.2588 326.332 39.1996V39.7403ZM321.692 36.7387C321.653 36.5989 321.412 35.6203 320.672 34.9192C320.467 34.728 320.228 34.5594 319.959 34.4217C319.784 34.3312 319.597 34.2551 319.396 34.1955C319.062 34.0948 318.694 34.0393 318.291 34.0393C317.858 34.0393 317.486 34.0968 317.163 34.1914C316.515 34.3826 316.065 34.7259 315.732 35.059C315.352 35.4805 314.992 36.0397 314.852 36.7387H321.692ZM333.651 31.0602H328.612V46.6606H333.651V40.5401H339.293V46.6606H344.332V31.0602H339.293V36.4796H333.651V31.0602Z" fill="#253256"/>
</svg>

<svg width="401" height="100" fill="none" xmlns="http://www.w3.org/2000/svg"><path d="M136.492 74.88c0 9.72-5.4 15.12-15.12 15.12h-49.76c-9.72 0-15.12-5.4-15.12-15.12V25.12c0-9.72 5.4-15.12 15.12-15.12h49.78c9.7 0 15.1 5.4 15.1 15.12v49.76z" fill="#9AACDE"/><path fill-rule="evenodd" clip-rule="evenodd" d="M107.932 46.1v-7.64l2.759-2.762v6.62l2.401 2.4 9.659-9.659 2.381 2.379c-.021-1.8-.381-7.02-4.801-11.36-4.759-4.598-9.92-2.52-11.68-.76l-9.64 9.64 2.461 2.461-4.98 5.019-4.98-4.98L93.971 35l-9.64-9.64c-1.76-1.76-6.92-3.84-11.68.759-4.42 4.34-4.78 9.56-4.8 11.36l2.38-2.38 9.659 9.66 2.401-2.398v-6.62l2.76 2.758v7.64L88.93 50 69.81 69.12l7.561 7.54 19.12-19.1 19.119 19.12 7.561-7.541L104.051 50l3.88-3.9zm41.901 7.24h14.421v4.54h-9.02v4.66h3c2.019 0 4.62.241 6.579 2.161.841.84 1.881 2.379 1.881 4.858 0 .749-.092 1.466-.271 2.136-.3 1.119-.845 2.102-1.61 2.864-.52.52-1.11.92-1.758 1.222a8.284 8.284 0 01-1.396.49c-1.176.297-2.488.39-3.886.39h-7.94V53.34zm7.521 18.98c.74 0 2.06-.06 2.899-.74.162-.14.44-.415.643-.853.148-.314.257-.713.257-1.207 0-.176-.014-.343-.039-.5a2.752 2.752 0 00-.117-.464 2.545 2.545 0 00-.296-.594 2.39 2.39 0 00-.512-.545l-.076-.057c-.839-.6-2.2-.62-2.759-.62h-2.14v5.601h2.14v-.02zm28.898-11.26h-5.039v1.76c-.972-1.322-2.266-1.898-3.409-2.132a7.428 7.428 0 00-1.492-.148c-2.159 0-4.059.78-5.42 2.14-1.439 1.44-2.42 3.68-2.42 6.3 0 2.06.64 4.1 2.28 5.84 1.721 1.82 3.6 2.38 5.841 2.38.66 0 1.493-.083 2.33-.44.808-.346 1.622-.949 2.29-1.98v1.88h5.039v-15.6zm-12.599 7.78c0-.771.194-1.396.455-1.89.214-.4.471-.715.705-.95a3.83 3.83 0 012.74-1.1c.919 0 2.04.34 2.799 1.08.139.132.269.275.386.43.134.179.251.372.352.575.275.553.423 1.19.423 1.855 0 1.34-.561 2.321-1.221 2.94a3.683 3.683 0 01-1.172.785 3.69 3.69 0 01-1.447.294c-1.201 0-2.28-.479-2.981-1.219-.44-.5-1.039-1.4-1.039-2.8zm15.64-7.78h5.039v5.42h5.641v-5.42h5.039v15.6h-5.039v-6.12h-5.641v6.12h-5.039v-15.6zm23.779 0h-5.04v15.6h5.04v-6.92l5.32 6.92h6.501l-7.14-8.359 6.68-7.24h-6.261l-5.1 6.2v-6.2zm-55.021-37.72c2.021 0 4.262.28 6.12 1.92 2.001 1.74 2.28 4.06 2.28 5.66 0 2.94-1.12 4.581-2 5.5-1.859 1.881-4.299 2.06-5.94 2.06h-3.279v8.18h-5.38V23.34h8.199zm-2.839 10.74h1.92c.286 0 .65-.006 1.04-.061.627-.089 1.32-.302 1.861-.819.479-.48.88-1.299.88-2.3 0-.448-.072-.862-.202-1.223a2.62 2.62 0 00-.678-1.057c-.802-.759-1.961-.88-3.002-.88h-1.819v6.34zm29.42-3.02h-5.039v1.76a5.333 5.333 0 00-2.389-1.834c-.917-.36-1.826-.446-2.512-.446-2.159 0-4.059.78-5.42 2.14-1.439 1.44-2.42 3.68-2.42 6.3 0 1.332.268 2.656.901 3.896.345.678.8 1.33 1.379 1.945 1.721 1.819 3.6 2.378 5.841 2.378.658 0 1.485-.08 2.317-.434.812-.345 1.631-.947 2.303-1.986v1.882h5.039v-15.6zm-12.599 7.78c0-1.4.64-2.32 1.16-2.84.66-.66 1.68-1.12 2.74-1.1a4.29 4.29 0 011.363.229c.525.177 1.03.456 1.435.851.387.366.687.825.885 1.34a4.248 4.248 0 01.246 1.002c.011.084.017.17.021.257.006.086.01.172.01.26 0 1.341-.561 2.322-1.221 2.94a3.71 3.71 0 01-1.809.992l-.218.043-.204.025c-.127.014-.257.02-.388.02a4.401 4.401 0 01-1.485-.257 3.847 3.847 0 01-1.496-.962c-.44-.5-1.039-1.4-1.039-2.8zm20.679-7.78v8.92l6.64-8.92h4.682v15.6h-5.041V37.6l-6.641 9.06h-4.679v-15.6h5.039zm9.482-6.3c-.422 1.26-1.261 2.34-2.241 2.98-1.32.88-2.94.98-4.1.98-1.159 0-2.761-.1-4.099-.98a4.62 4.62 0 01-.708-.553 6.318 6.318 0 01-.37-.385 6.097 6.097 0 01-1.163-2.041l3.499-1.361c.14.699.481 1.26.9 1.6.461.38 1.041.62 1.921.62.215 0 .413-.014.596-.04l.105-.017.102-.02.138-.036.138-.04c.329-.11.6-.27.841-.468.419-.339.761-.9.9-1.6l3.541 1.362zm12.979 22.141v7.54h5.08V46.9h.199c3.541 0 5.5-1.462 6.4-2.342a7.154 7.154 0 001.495-2.138l.107-.242c.134-.323.251-.669.347-1.04a8.812 8.812 0 00.282-1.937c.006-.14.008-.28.008-.422a8.733 8.733 0 00-.401-2.679 7.333 7.333 0 00-1.108-2.164l-.074-.097-.127-.159a6.65 6.65 0 00-.989-.98c-1.54-1.221-3.859-1.881-5.919-1.881h-.241v-7.48h-5.039v7.48h-.24c-2.081 0-4.381.66-5.921 1.88-1.3 1.041-2.7 3-2.7 6.08 0 2.84 1.121 4.7 2.241 5.78.899.88 2.86 2.341 6.398 2.341h.202zm-1.022-11.914c.411-.09.841-.127 1.262-.107v7.96c-1.281.04-2.481-.44-3.141-1.18-.601-.62-1.02-1.64-1.02-2.86 0-1.239.419-2.24 1.02-2.84.462-.475 1.141-.81 1.879-.973zm8.962 6.694c-.66.72-1.84 1.22-3.14 1.18v-7.96a4.408 4.408 0 012.321.485c.309.164.588.364.819.594.273.274.51.633.686 1.059a4.7 4.7 0 01.333 1.78c0 1.221-.419 2.241-1.019 2.862zm16.301 12.76V46.9h-.201c-1.139 0-2.114-.152-2.945-.386a8.658 8.658 0 01-1.231-.449 7.661 7.661 0 01-2.681-1.996 6.292 6.292 0 01-.384-.497 7.33 7.33 0 01-.782-1.442 8.334 8.334 0 01-.538-2.09 8.93 8.93 0 01-.078-1.26c0-3.08 1.4-5.04 2.699-6.08 1.54-1.221 3.84-1.881 5.921-1.881h.241v-7.48h5.039v7.48h.24a10.71 10.71 0 012.952.421c.288.082.57.177.845.282.786.302 1.514.697 2.122 1.178 1.302 1.04 2.7 3 2.7 6.08 0 1.13-.177 2.1-.461 2.93a7.416 7.416 0 01-.972 1.905 7.256 7.256 0 01-.806.943c-.576.564-1.587 1.366-3.171 1.87a9.826 9.826 0 01-1.387.328 11.28 11.28 0 01-1.842.144h-.2v7.54h-5.08zm.241-19.56c-1.181-.06-2.422.338-3.142 1.078-.6.6-1.02 1.602-1.02 2.842 0 1.219.42 2.239 1.02 2.86.66.74 1.861 1.219 3.142 1.18v-7.96zm4.558 7.98c1.301.04 2.481-.46 3.141-1.18.319-.329.586-.77.767-1.295.16-.465.253-.993.253-1.567 0-1.219-.42-2.239-1.02-2.839-.74-.74-1.961-1.16-3.141-1.08v7.961zm28.359-11.8h-5.039v1.76c-1.441-1.96-3.582-2.28-4.901-2.28-2.159 0-4.059.778-5.42 2.14-1.439 1.438-2.42 3.68-2.42 6.299 0 1.311.259 2.615.87 3.838.349.699.814 1.37 1.41 2.003 1.721 1.819 3.6 2.378 5.841 2.378 1.3 0 3.259-.319 4.62-2.42v1.882h5.039v-15.6zm-12.599 7.779c0-.65.138-1.195.337-1.645.231-.522.543-.915.823-1.194a3.864 3.864 0 012.74-1.1c.919 0 2.04.339 2.798 1.079.741.7 1.162 1.74 1.162 2.86 0 1.34-.561 2.321-1.221 2.94a3.72 3.72 0 01-2.619 1.08c-1.201 0-2.28-.48-2.982-1.22a4.213 4.213 0 01-.662-1.014 4.254 4.254 0 01-.376-1.786zm20.679-7.78v8.92l6.64-8.92h4.682v15.6h-5.041V37.6l-6.641 9.06h-4.679v-15.6h5.039zm9.482-6.3a6.032 6.032 0 01-.829 1.61 5.662 5.662 0 01-.812.907 5.195 5.195 0 01-1.651.993 6.71 6.71 0 01-1.254.325 11.19 11.19 0 01-1.795.126c-1.159 0-2.761-.101-4.099-.981-.981-.621-1.822-1.72-2.241-2.98l3.499-1.36c.14.699.481 1.26.9 1.6.231.189.49.343.802.45.313.109.679.17 1.119.17.88 0 1.459-.24 1.92-.62a2.4 2.4 0 00.565-.681 3.11 3.11 0 00.335-.92l3.541 1.362zm6.959 6.34c-.841.32-1.92.88-2.58 1.3l1.959 3.38a6.382 6.382 0 011.682-1.02 4.894 4.894 0 012.06-.42c.839 0 1.338.18 1.579.281.362.162.561.387.664.6a1 1 0 01.096.42c0 .3-.139.758-.74 1.038a2.547 2.547 0 01-.61.173 7.789 7.789 0 01-1.271.109h-1.439v3.419h1.879c.561 0 1.4.1 1.822.28.197.086.361.195.485.332.162.181.255.412.255.708 0 .228-.045.526-.253.8a1.482 1.482 0 01-.448.38c-.5.28-1.261.38-1.82.38a6.79 6.79 0 01-1.632-.218 5.817 5.817 0 01-.788-.261c-.621-.282-1.361-.781-1.92-1.26l-2.14 3.32a11.29 11.29 0 001.62 1.092c.354.193.75.382 1.18.547 1.4.52 2.86.7 4.26.7 2.601 0 4.42-.38 5.74-1.679a4.61 4.61 0 001.073-1.636 4.597 4.597 0 00.286-1.625c0-.137-.004-.273-.016-.405-.009-.084-.017-.168-.029-.25l-.029-.173c-.127-.65-.426-1.225-.964-1.752-.22-.22-.942-.84-2.101-1.12a3.232 3.232 0 00.633-.32l.119-.081a4.196 4.196 0 00.568-.48c.76-.799.939-1.679.939-2.66 0-.298-.022-.592-.076-.878a3.59 3.59 0 00-1.083-1.982c-1.579-1.54-4.439-1.599-5.28-1.599-1.201 0-2.5.14-3.68.56zm29.239 8.64h-11.64c0 .29.039.615.115.944.144.62.421 1.258.826 1.715.2.222.422.396.654.53.162.095.331.17.5.23.499.18 1.007.22 1.424.22.28 0 .562-.02.833-.061.446-.07.863-.2 1.188-.4.06-.038.66-.419 1.08-1.299l4.761.481c-.701 2.2-2.101 3.36-3.001 3.92-1.499.9-3.179 1.159-4.939 1.159-2.342 0-4.402-.42-6.221-2.24-1.359-1.36-2.34-3.42-2.34-6.019 0-2.24.8-4.54 2.381-6.16a7.302 7.302 0 013.031-1.821c1.046-.329 2.074-.42 2.948-.42 1.741 0 4.26.321 6.2 2.34 1.861 1.962 2.2 4.4 2.2 6.34v.541zm-4.64-3.001c-.039-.14-.28-1.119-1.02-1.82a3.144 3.144 0 00-.713-.497 3.205 3.205 0 00-.563-.226 3.811 3.811 0 00-1.105-.157c-.433 0-.805.058-1.128.152a3.308 3.308 0 00-1.431.868c-.38.422-.74.98-.88 1.68h6.84zm11.959-5.679h-5.039v15.6h5.039v-6.12h5.642v6.12h5.039v-15.6h-5.039v5.42h-5.642v-5.42z" fill="#253256"/></svg>
